X: 36547
T: Setting Sun, The
R: reel
M: 4/4
K: Dmajor
|:Adcd AGFD|EFGA BEEB|Adcd AGFD|EFGE EDDB|
Adcd AGFD|EFGA BEEB|AGAG FDDF|1 EFGE EDDB:|2 EFGE EDDE||
|:F3 A G3 B|ABcA d2 de|f2 af edcA|B3 d BADE|
F3 A G3 B|ABcA d2 de|f2 af edcA|1 BABc d2 DE:|2 BABc d3B||

